symbols/web/draw/materialsymbolsrounded/draw_wght600_48px.svg

<svg xmlns="http://www.w3.org/2000/svg" height="48" width="48"><path d="M28.5 42.6q-.7 0-1.2-.5t-.5-1.2q0-.7.5-1.175.5-.475 1.2-.475 2.85 0 4.825-1.15t1.975-2.7q0-1.05-1.425-2.125T29.95 31.6L32.5 29q3.2 1 4.675 2.675Q38.65 33.35 38.65 35.4q0 3.45-3.1 5.325T28.5 42.6ZM11.4 27q-3.4-.75-4.8-2.275T5.2 21.5q0-1.8 1.275-3.275Q7.75 16.75 12.6 15.1q3.2-1.05 4.15-1.8.95-.75.95-1.75 0-1.15-1.075-2-1.075-.85-3.275-.85-1.3 0-2.225.325T9.45 10.05q-.45.5-1.125.55-.675.05-1.225-.35-.6-.45-.625-1.125-.025-.675.375-1.175.9-1.1 2.625-1.85t3.875-.75q3.45 0 5.55 1.675Q21 8.7 21 11.55q0 2.25-1.45 3.7-1.45 1.45-5.65 2.9-3.35 1.2-4.375 1.925Q8.5 20.8 8.5 21.5q0 .8 1.35 1.5t4.2 1.35Zm26.1-7.65-6.85-6.85 2.25-2.25q.95-.95 2.175-.975 1.225-.025 2.275.975l2.4 2.4q1 1.05.975 2.275-.025 1.225-.975 2.175ZM11.3 38.7H13l16.9-16.95-1.65-1.65L11.3 37Zm-2.6 3.6q-.4 0-.7-.3-.3-.3-.3-.7v-5.45q0-.15.25-.7l20.3-20.25 6.85 6.85-20.25 20.3q-.15.15-.7.25Zm19.55-22.2 1.65 1.65Z"/></svg>

<svg xmlns="http://www.w3.org/2000/svg" height="48" width="48"><path d="M28.5 42.6Q27.8 42.6 27.3 42.1Q26.8 41.6 26.8 40.9Q26.8 40.2 27.3 39.725Q27.8 39.25 28.5 39.25Q31.35 39.25 33.325 38.1Q35.3 36.95 35.3 35.4Q35.3 34.35 33.875 33.275Q32.45 32.2 29.95 31.6L32.5 29Q35.7 30 37.175 31.675Q38.65 33.35 38.65 35.4Q38.65 38.85 35.55 40.725Q32.45 42.6 28.5 42.6ZM11.4 27Q8 26.25 6.6 24.725Q5.2 23.2 5.2 21.5Q5.2 19.7 6.475 18.225Q7.75 16.75 12.6 15.1Q15.8 14.05 16.75 13.3Q17.7 12.55 17.7 11.55Q17.7 10.4 16.625 9.55Q15.55 8.7 13.35 8.7Q12.05 8.7 11.125 9.025Q10.2 9.35 9.45 10.05Q9 10.55 8.325 10.6Q7.65 10.65 7.1 10.25Q6.5 9.8 6.475 9.125Q6.45 8.45 6.85 7.95Q7.75 6.85 9.475 6.1Q11.2 5.35 13.35 5.35Q16.8 5.35 18.9 7.025Q21 8.7 21 11.55Q21 13.8 19.55 15.25Q18.1 16.7 13.9 18.15Q10.55 19.35 9.525 20.075Q8.5 20.8 8.5 21.5Q8.5 22.3 9.85 23Q11.2 23.7 14.05 24.35ZM37.5 19.35 30.65 12.5 32.9 10.25Q33.85 9.3 35.075 9.275Q36.3 9.25 37.35 10.25L39.75 12.65Q40.75 13.7 40.725 14.925Q40.7 16.15 39.75 17.1ZM11.3 38.7H13L29.9 21.75L28.25 20.1L11.3 37ZM8.7 42.3Q8.3 42.3 8 42Q7.7 41.7 7.7 41.3V35.85Q7.7 35.7 7.95 35.15L28.25 14.9L35.1 21.75L14.85 42.05Q14.7 42.2 14.15 42.3ZM28.25 20.1 29.9 21.75Z"/></svg>
